!!!OTL: OP DOE GROENE WESE
!!!ARE: Europa, Mitteleuropa, Deutschland; Rossiya, Litauen
!!!SCT: E0966A
!!!YEM: Copyright 1995, estate of Helmut Schaffrath.
**kern
*ICvox
*Ivox
*M2/4
*k[]
*C:
=1
{8G
8c
8B
8d
=2
8c
8c
8G
8r}
=3
{4A
4B
=4
4c
8r}
{8G
=5
8G
8c
8B
8d
=6
8c
8c
8G}
{8G
=7
8A
8F
8F
8A
=8
8G
8E
8E}
{8c
=9
8B
8G
8A
8B
=10
4c
4r}
==
!!!AGN: Tanz - Lied, Reigen, Mai - Tanz
!!!ONB: ESAC (Essen Associative Code) Database: ERK2
!!!AMT: simple duple
!!!AIN: vox
!!!EED: Helmut Schaffrath
!!!EEV: 1.0
*-
